X:1
T:Come vuoi c'habbia
T:Luca Marenzio
T:Source : Il primo libro delle Villanelle a tre voci---Venetia---G.Vincenzi---1586. Editor : André Vierendeels 09/05/17).
T:Notes : Original clefs : C1, C2, F4 Editorial accidentals above the staff "Terza impressione" m 2 in B : "B" not dotted in original print m3 in B :  first "G" notated as "A" in original print m 9 in B : first  "G" notated as quarter in original print              
T:Come vuoi c'habbia
T:©
T:©
C:Luca Marenzio
Z:©
%%score [ 1 2 3 ]
L:1/8
Q:1/4=120
M:4/4
K:C
V:1 treble nm="Soprano 1" snm="S 1"
V:2 treble nm="Soprano 2" snm="S 2"
V:3 bass nm="Bass" snm="B"
V:1
"^1)" z2 A2 c4- | c2 B2 G2 A2 | B2 d2 d2 ^c2 | d4 d4 | B2 c4 B2 | G4 G4 | A3 A G2 F2 | E4 D4 :: %8
w: Co- me|_ vuoi c'hab- bia'in|te piu fe- de'A-|mo- re,|se mi tra-|di- sti|sot- to fe- de'il|co- re,|
w: Poi che|_ nel pet- to|mio ri- no- va'il|fo- co,|con tue li-|sin- gh'e'il|mio mal pren- di'à|gio- co,|
 z2 d2 B2 c2 | d4 d2 e2 | c2 d2 B4- | B4 B4 | e6 d2- | d2 c2 B3 A | A8 |] %15
w: fe mi mo-|stra- sti, poi|m'in- gan- na-|* sti,|ahi, fe|_ fal- la ce'ahi-|me.|
w: già d'a- mor|pie- no, vi-|d'il bel se-|* no,|ahi, co-|* re'in- gra- to'ahi-|me.|
V:2
"^2)""^1)" z2 E2 A4- | A2 G2 E2 ^F2 | G2 B2 A2 G2 | ^F4 F4 | G2 A4 G2 | E4 E4 | F3 F E2 D2 | %7
w: Co- me|_ vuoi c'hab- bia'in|te poi fe- de'A-|mo- re,|se mi tra-|di- sti|sot- to fe de'il|
w: Pur vuoi|che ne tuoi in|gan- ni'hab- bi fi-|dan- za,|et al mi-|se- ro|cor do- ni spe-|
 ^C4 D4 :: z2 G2 G2 E2 | B4 B2 c2 | A2 A2 ^G4- | G4 ^G4 | c6 B2- | B2 A2 ^G3 A | A8 |] %15
w: co- re,|fe mi mo-|stra- sti, poi|m'in- gan- na-|* sti,|ahi, fe|_ fal- la- ce'ahi-|me.|
w: ran- za,|e'al pen- sier|mi- o, giun-|ge'al de- si-|* o,|ahi, spe-|* rar va- no'ahi-|me.|
V:3
"^3)""^1)""^4)" A,,4 A,,4- | A,,2 B,,3 C, D,2 | G,,2 G,2 F,2 E,2 | D,4 D,4 | %4
w: Co- me|_ vuoi c'hab- bia'in|te piu fe- de'A-|mo- re,|
w: O spe-|* me'o co- re'o|fè, ben- che fal-|la- ce,|
"^-natural" G,2 F,4 G,2 | C,4 C,4 | F,3 F, G,2 G,2 | A,4 D,4 :: G,4 G,2 A,2 | G,4 G,2 E,2 | %10
w: se mi tra-|di- sti|sot- to fe- de'il|co- re,|fe mi mo-|stra- sti, poi|
w: ec- co ch'io|tor- no'à|voi, poi ch'à voi|pia- ce:|Non piu mar-|ti- ri, al|
 F,2 D,2 E,4- | E,4 E,4 | C,6 G,,2- | G,,2 A,,2 E,3 A,, | A,,8 |] %15
w: m'in- gan- na-|* sti,|ahi, fe|_ fal- la- ce'ahi-|me.|
w: mio ser- vi-|* re,|non piu|_ tor- men- ti'ahi-|me.|

